X:2803
L:1/4
Q:1/2=120
M:3/2
K:G
 G B d g G B | c A2 G F E | G B d g G d | g G2 E F D || d g f e d B | c A2 G F D | d g f e d f | 
 g G2 E F D || G/A/B/G/ A/B/c/A/ B/c/d/B/ | c A2 G F D | G/A/B/G/ A/B/c/A/ B/c/d/B/ | g G2 E F D |]

